Numix-GalliumOS/48/emblems/emblem-camera.svg

<svg xmlns="http://www.w3.org/2000/svg" viewBox="0 0 48 48">
 <g style="stroke:#777">
  <path d="m 25.932 35.19 a 12.254 12.508 0 1 1 -24.508 0 12.254 12.508 0 1 1 24.508 0 z" transform="matrix(1.59979 0 0 1.56727 2.11819 -31.14659)" style="fill:#fff;stroke-width:0.5"/>
 </g>
 <path d="m 14 13 c -0.554 0 -1 0.446 -1 1 c 0 0.554 0.446 1 1 1 l -3 0 c -0.554 0 -1 0.446 -1 1 l 0 18 c 0 0.554 0.446 1 1 1 l 26 0 c 0.554 0 1 -0.446 1 -1 l 0 -18 c 0 -0.554 -0.446 -1 -1 -1 l -19 0 c 0.554 0 1 -0.446 1 -1 c 0 -0.554 -0.446 -1 -1 -1 l -4 0 z m 19 4 l 1 0 c 0.554 0 1 0.446 1 1 l 0 1 c 0 0.554 -0.446 1 -1 1 l -1 0 c -0.554 0 -1 -0.446 -1 -1 l 0 -1 c 0 -0.554 0.446 -1 1 -1 z m -9 2 a 6 6 0 0 1 6 6 a 6 6 0 0 1 -6 6 a 6 6 0 0 1 -6 -6 a 6 6 0 0 1 6 -6 z" style="fill:#427fed;opacity:1;fill-opacity:1;stroke:none"/>
</svg>

<?xml version="1.0" encoding="UTF-8" standalone="no"?>
<svg
   xmlns:dc="http://purl.org/dc/elements/1.1/"
   xmlns:cc="http://creativecommons.org/ns#"
   xmlns:rdf="http://www.w3.org/1999/02/22-rdf-syntax-ns#"
   xmlns:svg="http://www.w3.org/2000/svg"
   xmlns="http://www.w3.org/2000/svg"
   xmlns:sodipodi="http://sodipodi.sourceforge.net/DTD/sodipodi-0.dtd"
   xmlns:inkscape="http://www.inkscape.org/namespaces/inkscape"
   width="48"
   viewBox="0 0 48 48"
   height="48"
   id="svg2"
   version="1.1"
   inkscape:version="0.91 r13725"
   sodipodi:docname="emblem-camera.svg">
  <metadata
     id="metadata24">
    <rdf:RDF>
      <cc:Work
         rdf:about="">
        <dc:format>image/svg+xml</dc:format>
        <dc:type
           rdf:resource="http://purl.org/dc/dcmitype/StillImage" />
      </cc:Work>
    </rdf:RDF>
  </metadata>
  <defs
     id="defs22" />
  <sodipodi:namedview
     pagecolor="#ffffff"
     bordercolor="#666666"
     borderopacity="1"
     objecttolerance="10"
     gridtolerance="10"
     guidetolerance="10"
     inkscape:pageopacity="0"
     inkscape:pageshadow="2"
     inkscape:window-width="1366"
     inkscape:window-height="704"
     id="namedview20"
     showgrid="false"
     inkscape:zoom="1"
     inkscape:cx="20.544376"
     inkscape:cy="24"
     inkscape:window-x="0"
     inkscape:window-y="27"
     inkscape:window-maximized="1"
     inkscape:current-layer="svg2">
    <inkscape:grid
       type="xygrid"
       id="grid4152" />
  </sodipodi:namedview>
  <g
     style="stroke:#777"
     id="g4">
    <path
       style="fill:#fff;stroke-width:.5"
       d="m 25.932203,35.18644 a 12.254237,12.508474 0 1 1 -24.5084741,0 12.254237,12.508474 0 1 1 24.5084741,0 z"
       transform="matrix(1.59979 0 0 1.56727 2.11819 -31.14659)"
       id="path6" />
  </g>
  <g
     transform="translate(-.50002 -.20289)"
     id="g12" />
  <path
     style="opacity:1;fill:#427fed;fill-opacity:1;stroke:none;stroke-width:2;stroke-linecap:round;stroke-linejoin:round;stroke-miterlimit:4;stroke-dasharray:none;stroke-opacity:1"
     d="M 14 13 C 13.446 13 13 13.446 13 14 C 13 14.554 13.446 15 14 15 L 11 15 C 10.446 15 10 15.446 10 16 L 10 34 C 10 34.554 10.446 35 11 35 L 37 35 C 37.554 35 38 34.554 38 34 L 38 16 C 38 15.446 37.554 15 37 15 L 18 15 C 18.554 15 19 14.554 19 14 C 19 13.446 18.554 13 18 13 L 14 13 z M 33 17 L 34 17 C 34.554 17 35 17.446 35 18 L 35 19 C 35 19.554 34.554 20 34 20 L 33 20 C 32.446 20 32 19.554 32 19 L 32 18 C 32 17.446 32.446 17 33 17 z M 24 19 A 6 6 0 0 1 30 25 A 6 6 0 0 1 24 31 A 6 6 0 0 1 18 25 A 6 6 0 0 1 24 19 z "
     id="rect4154" />
</svg>
